packages/core/src/svgs/tokens/branded/MEME.svg

<svg width="24" height="24" viewBox="0 0 24 24" fill="none" xmlns="http://www.w3.org/2000/svg">
<path d="M15.2598 3.25213H7.80815C7.46254 3.25213 7.17442 3.43962 7.07318 3.534L6.05446 4.79708L11.658 9.69186L17.0697 4.79771C16.821 4.50271 16.2717 3.84274 16.0629 3.56275C15.8542 3.28213 15.4405 3.23901 15.2598 3.25213ZM2.34833 9.06378L3.87515 7.40575V16.6629C3.30892 14.7612 2.14646 10.8118 2.02834 10.2256C1.90959 9.64068 2.1927 9.20757 2.34833 9.06378ZM20.6247 9.06378L19.2647 7.40575V16.6629C19.769 14.7612 20.8052 10.8118 20.9102 10.2256C21.0158 9.64068 20.7634 9.20757 20.6247 9.06378ZM11.0843 20.6448L7.08442 18.701V15.2717L10.4674 14.868L13.8886 13.7867L16.076 18.7004C14.898 19.2692 12.438 20.4534 12.0193 20.644C11.6005 20.8354 11.2218 20.7247 11.0843 20.6448Z" fill="#4B7C4C"/>
<path d="M5.87199 4.50018H4.45642C4.01081 4.50018 3.87894 4.77829 3.87582 4.91705C3.87894 9.19499 3.88206 17.8604 3.87582 18.2979C3.86956 18.7354 4.2158 18.8697 4.38205 18.8747H7.78631C8.19504 18.8747 8.24691 18.4847 8.25068 18.2979V15.3791C9.57499 15.1155 10.3307 15.2186 11.1437 15.2186C11.7936 15.2186 11.6937 15.9617 11.5618 16.3329C11.3569 16.9497 10.8743 18.2184 10.5862 18.3622C10.2257 18.5416 9.92381 18.7915 9.79621 19.1822C9.66817 19.5729 9.83063 20.1591 10.4119 20.4234C10.993 20.6872 11.6894 20.3547 11.9218 19.8485C12.108 19.4441 11.9587 19.0203 11.8606 18.8591C12.043 18.4048 12.4949 17.3891 12.8455 16.9567C13.283 16.4154 13.403 16.253 13.8405 16.0911C14.1905 15.961 14.8417 16.4892 15.1236 16.7692V18.3622C15.1236 18.6778 15.3892 18.8404 15.5223 18.8747H18.8622C19.3703 18.8516 19.4953 18.5185 19.4941 18.3622V10.9812C20.3877 10.5919 22.1377 9.34009 21.9914 7.45508C21.8446 5.56952 20.266 5.3164 19.4947 5.42577V5.00267C19.454 4.67392 19.1672 4.53081 19.0285 4.50018H17.631C17.4298 4.50018 17.1441 4.7108 17.0267 4.8158L11.7244 9.50561C10.1087 8.11194 6.80321 5.24391 6.50823 4.91705C6.2126 4.58955 5.96074 4.50268 5.87199 4.50018Z" fill="#1D6834"/>
<path d="M8.11841 13.9373V12.2056L9.86392 13.7292L8.11841 13.9373Z" fill="#4B7C4C"/>
<path d="M16.0751 10.8663L19.4742 7.20332C19.478 6.93208 19.4831 6.50334 19.4849 6.09211C19.6705 5.91086 20.0912 5.94461 20.278 5.98399C20.6661 6.0921 21.4436 6.57646 21.4436 7.65268C21.4436 8.99822 20.8936 9.66831 19.3606 10.4889C18.1349 11.1457 16.3757 12.4157 15.6494 12.9681C15.4162 13.1306 14.9325 13.6213 14.862 14.2887C14.7745 15.123 16.3557 16.6105 16.3557 16.5511C16.3557 16.4924 16.7669 16.4187 17.0207 16.5511C17.275 16.6843 17.3881 16.9312 17.275 17.2749C17.1612 17.6186 16.7062 17.7099 16.3563 17.548C16.0751 17.4179 16.0513 17.0192 16.0751 16.8355C14.7026 15.6212 13.9208 15.5118 13.702 15.6086C13.4964 15.6368 12.957 15.8899 12.444 16.6736C11.9302 17.458 11.4777 18.5548 11.3158 19.0048C11.4096 19.0798 11.5721 19.3098 11.4733 19.6285C11.3752 19.9473 11.0796 20.0179 10.8333 20.0097C10.5877 20.0017 10.2809 19.8191 10.2809 19.4035C10.2809 18.9474 10.714 18.8274 10.9352 18.7998C11.8534 17.5105 12.114 16.1918 12.1301 15.6937C12.1739 15.3499 11.9239 14.6688 10.5777 14.6874C9.23151 14.7062 8.07529 14.9138 7.6653 15.015C7.6653 15.2375 7.45155 15.4481 7.15282 15.4481C6.73845 15.4481 6.52783 15.138 6.52783 14.8687C6.52783 14.5999 6.71721 14.2887 7.15282 14.2887C7.42781 14.2887 7.60905 14.4631 7.6653 14.5425C7.92092 14.5375 8.77213 14.4681 10.1352 14.2887C11.4977 14.1094 11.8477 13.7468 11.8521 13.5882C11.8952 13.4663 11.872 13.0668 11.4408 12.442C11.0096 11.8169 10.1596 11.0232 9.78843 10.7044C9.23399 11.0088 8.84464 10.5914 8.8284 10.3232C8.81339 10.0545 8.92776 9.64512 9.48146 9.6683C10.0359 9.69193 10.099 10.2251 10.0614 10.4889C10.4027 11.0814 11.4414 12.3012 12.8708 12.442C14.2995 12.582 15.6019 11.4495 16.0751 10.8663Z" fill="#61A761"/>
<path d="M5.80496 5.12518H4.5V18.2498H7.6249V15.7887C7.52428 15.8417 7.28991 15.9448 7.00929 15.926C6.74964 15.9055 6.50535 15.7948 6.31875 15.6131C6.13213 15.4314 6.01493 15.1902 5.98745 14.9312C5.8937 14.2198 6.56619 13.7924 6.92805 13.758C7.21741 13.7306 7.50053 13.8217 7.6249 13.8712C7.61249 13.2171 7.61249 12.5628 7.6249 11.9087C7.6424 11.22 8.16488 11.3562 8.40549 11.5106L10.5892 13.4055C10.7092 13.4974 10.9972 13.653 11.1954 13.543C11.3936 13.4331 11.278 13.1305 11.1954 12.9931C10.7298 12.2306 10.0511 11.4606 9.74923 11.1962C9.3205 11.3062 9.07485 11.3088 8.67236 11.0638C8.37112 10.8801 7.97301 10.0776 8.52674 9.50009C9.07985 8.92319 9.70855 9.07324 10.1504 9.41375C10.4842 9.67129 10.563 10.1506 10.5504 10.3882C11.2911 11.5424 12.0704 11.9405 13.1953 11.9093C14.0954 11.8837 14.9434 11.2656 15.2547 10.9606L18.8746 7.03949V5.12518H17.6521C15.9102 6.65264 12.3553 9.77322 12.071 10.0182C11.7854 10.2632 11.4866 10.12 11.3729 10.0182L5.80496 5.12518ZM15.7496 13.5274C16.1152 13.0574 17.9715 11.8374 18.8746 11.2862V18.2498H15.7496V17.6679C15.9452 17.9455 16.294 18.0948 16.414 18.1161H16.4159C16.6374 18.1604 16.867 18.142 17.0786 18.0629C17.2902 17.9837 17.4754 17.8469 17.6133 17.6679C17.9852 17.2067 17.7514 16.5368 17.382 16.2054C17.0859 15.941 16.6134 15.9317 16.4133 15.9604L15.7496 15.1918V13.5274Z" fill="white"/>
</svg>

<svg xmlns="http://www.w3.org/2000/svg" width="24" height="24" fill="none" viewBox="0 0 24 24">
    <path fill="#4B7C4C" d="M15.26 3.252H7.808a1.17 1.17 0 0 0-.735.282L6.054 4.797l5.604 4.895 5.412-4.894a40 40 0 0 1-1.007-1.235c-.209-.28-.622-.324-.803-.31M2.348 9.064l1.527-1.658v9.257c-.566-1.902-1.729-5.851-1.847-6.437-.118-.585.165-1.018.32-1.162m18.277 0-1.36-1.658v9.257c.504-1.902 1.54-5.851 1.645-6.437.106-.585-.147-1.018-.285-1.162m-9.54 11.58-4-1.943v-3.43l3.382-.403 3.422-1.081 2.187 4.913a509 509 0 0 1-4.057 1.944c-.418.191-.797.08-.935 0"/>
    <path fill="#1D6834" d="M5.872 4.5H4.456c-.445 0-.577.278-.58.417.003 4.278.006 12.943 0 13.38a.537.537 0 0 0 .506.578h3.404c.409 0 .46-.39.465-.577v-2.919c1.324-.263 2.08-.16 2.893-.16.65 0 .55.743.418 1.114-.205.617-.688 1.885-.976 2.03-.36.179-.662.428-.79.82-.128.39.035.976.616 1.24s1.277-.068 1.51-.574c.186-.405.037-.829-.061-.99.182-.454.634-1.47.984-1.902.438-.542.558-.704.995-.866.35-.13 1.002.398 1.284.678v1.593c0 .316.265.478.398.513h3.34c.508-.023.633-.357.632-.513v-7.38c.894-.39 2.644-1.642 2.497-3.527-.146-1.885-1.725-2.139-2.496-2.03v-.422c-.041-.33-.328-.472-.466-.503H17.63c-.201 0-.487.21-.604.316l-5.303 4.69c-1.615-1.394-4.92-4.262-5.216-4.589-.295-.327-.547-.414-.636-.417"/>
    <path fill="#4B7C4C" d="M8.118 13.937v-1.731l1.746 1.523z"/>
    <path fill="#61A761" d="m16.075 10.866 3.4-3.663c.003-.27.008-.7.01-1.11.186-.182.606-.148.793-.109.388.108 1.166.592 1.166 1.669 0 1.345-.55 2.015-2.083 2.836-1.226.657-2.985 1.927-3.712 2.48-.233.162-.716.652-.787 1.32-.088.834 1.494 2.321 1.494 2.262s.41-.132.665 0c.254.133.367.38.254.724-.114.344-.569.435-.919.273-.28-.13-.305-.529-.28-.712-1.373-1.215-2.155-1.324-2.374-1.227-.206.028-.745.28-1.258 1.065-.514.784-.966 1.88-1.128 2.33a.58.58 0 0 1 .157.624c-.098.32-.393.39-.64.382a.57.57 0 0 1-.552-.607c0-.456.433-.576.654-.603.918-1.29 1.179-2.608 1.195-3.106.044-.344-.206-1.025-1.552-1.007-1.346.02-2.503.227-2.913.328 0 .223-.213.433-.512.433-.415 0-.625-.31-.625-.58 0-.268.19-.58.625-.58a.65.65 0 0 1 .512.255c.256-.005 1.107-.075 2.47-.254 1.363-.18 1.713-.542 1.717-.7.043-.123.02-.522-.411-1.147s-1.281-1.419-1.653-1.738c-.554.305-.943-.113-.96-.38-.015-.27.1-.679.653-.656.555.024.618.557.58.82.342.593 1.38 1.813 2.81 1.954 1.428.14 2.73-.992 3.204-1.576"/>
    <path fill="#fff" d="M5.805 5.125H4.5V18.25h3.125v-2.461a1.2 1.2 0 0 1-.616.137 1.116 1.116 0 0 1-1.022-.995c-.093-.711.58-1.139.941-1.173.29-.027.573.064.697.113a52 52 0 0 1 0-1.962c.017-.689.54-.553.78-.398l2.184 1.895c.12.091.408.247.606.137.199-.11.083-.412 0-.55-.465-.762-1.144-1.532-1.446-1.797-.429.11-.674.113-1.077-.132-.3-.184-.699-.986-.145-1.564.553-.577 1.182-.427 1.623-.086.334.257.413.737.4.974.741 1.154 1.52 1.553 2.645 1.521.9-.025 1.748-.643 2.06-.948l3.62-3.922V5.125h-1.223c-1.742 1.528-5.297 4.648-5.581 4.893a.52.52 0 0 1-.698 0zm9.945 8.402c.365-.47 2.221-1.69 3.125-2.24v6.963H15.75v-.582c.195.277.544.427.664.448h.002a1.21 1.21 0 0 0 1.197-.448c.372-.461.138-1.131-.231-1.463-.296-.264-.769-.273-.969-.245l-.663-.768z"/>
</svg>
